X: 22
T: Johnny Leary's
D:Julia and Billy Clifford, "Ceol as Sliabh Luachra"
R:polka
M:2/4
L:1/8
K:D
| f/e/d/c/ e/d/c/B/ | Af dc/d/ | cA GE | BA FD |
| f/e/d/c/ e/d/c/B/ | Af dB | cA GE | FD D2 :|
|: FA de | f/e/d/c/ BA | GB E>F | GA BA |
| FA de | f/e/d/c/ BA | GB E>F | ED D2 :|
%%sep 1 1 500
